wp-content/themes/watts/images/mouse-01.svg

<svg height="28.3" viewBox="0 0 16.6 28.3" width="16.6" xmlns="http://www.w3.org/2000/svg"><g fill="#fff"><path d="m9.7 28.3h-2.8a6.91 6.91 0 0 1 -6.9-6.9v-14.5a6.91 6.91 0 0 1 6.9-6.9h2.9a6.91 6.91 0 0 1 6.9 6.9v14.5a7.07 7.07 0 0 1 -7 6.9zm-2.8-27a5.48 5.48 0 0 0 -5.5 5.5v14.5a5.48 5.48 0 0 0 5.5 5.5h2.9a5.48 5.48 0 0 0 5.5-5.5v-14.4a5.48 5.48 0 0 0 -5.5-5.5h-2.9z"/><path d="m7.6 5.1h1.3v6.4h-1.3z"/></g></svg>

<svg id="Layer_9" data-name="Layer 9" xmlns="http://www.w3.org/2000/svg" width="16.6" height="28.3" viewBox="0 0 16.6 28.3">
  <defs>
    <style>
      .cls-1 {
        fill: #fff;
      }
    </style>
  </defs>
  <title>mouse</title>
  <path class="cls-1" d="M9.7,28.3H6.9A6.91,6.91,0,0,1,0,21.4V6.9A6.91,6.91,0,0,1,6.9,0H9.8a6.91,6.91,0,0,1,6.9,6.9V21.4A7.07,7.07,0,0,1,9.7,28.3ZM6.9,1.3A5.48,5.48,0,0,0,1.4,6.8V21.3a5.48,5.48,0,0,0,5.5,5.5H9.8a5.48,5.48,0,0,0,5.5-5.5V6.9A5.48,5.48,0,0,0,9.8,1.4H6.9Z"/>
  <rect class="cls-1" x="7.6" y="5.1" width="1.3" height="6.4"/>
</svg>
